!!!OTL: VATER IST DENN NICHT ERSCHAFFEN
!!!ARE: Europa, Mitteleuropa, Deutschland, Niederrhein
!!!SCT: E0922
!!!YEM: Copyright 1995, estate of Helmut Schaffrath.
**kern
*ICvox
*Ivox
*M3/4
*k[b-e-]
*B-:
=1
{8b-
8f
4f
4b-
=2
8cc
8b-
8a
8f}
{8f
8e-
=3
4d
4b-
8a
8cc
=4
4cc
4b-
4r}
=5
{8b-
8f
4f
4b-
=6
8cc
8b-
8a
8f}
{8f
8e-
=7
4d
4b-
8a
8cc
=8
4cc
4b-
4r}
=9
{8a
8b-
4cc
4dd
=10
8ee-
8dd
4cc
4b-}
=11
{8a
8b-
4cc
4dd
=12
8ee-
8dd
8cc
8b-}
{8a
8g
=13
4f
4b-
8a
8cc
=14
4cc
4b-
4r}
==
!!!AGN: Ehestands - Lied, Nonnen - Klage
!!!ONB: ESAC (Essen Associative Code) Database: ERK2
!!!AMT: simple triple
!!!AIN: vox
!!!EED: Helmut Schaffrath
!!!EEV: 1.0
*-
